img/icons/media/mic.svg

<svg xmlns="http://www.w3.org/2000/svg" viewBox="0 0 32 48"><defs><style>.cls-1{fill:#231f20}</style></defs><g id="Layer_2" data-name="Layer 2"><g id="Icons"><g id="Photo_Audio_Video" data-name="Photo / Audio / Video"><g id="Mic"><path class="cls-1" d="M30 19v5a14 14 0 01-28 0v-5H0v5a16 16 0 0015 16v8h2v-8a16 16 0 0015-16v-5z"/><path class="cls-1" d="M16 34a10 10 0 0010-10V10a10 10 0 00-20 0v14a10 10 0 0010 10zM8 10a8 8 0 0116 0v14a8 8 0 01-16 0z"/></g></g></g></g></svg>

<svg xmlns="http://www.w3.org/2000/svg" viewBox="0 0 32 48"><defs><style>.cls-1{fill:#231f20;}</style></defs><title>Mic</title><g id="Layer_2" data-name="Layer 2"><g id="Icons"><g id="Photo_Audio_Video" data-name="Photo / Audio / Video"><g id="Mic"><path class="cls-1" d="M30,19v5A14,14,0,0,1,2,24V19H0v5A16,16,0,0,0,15,40v8h2V40A16,16,0,0,0,32,24V19Z"/><path class="cls-1" d="M16,34A10,10,0,0,0,26,24V10A10,10,0,0,0,6,10V24A10,10,0,0,0,16,34ZM8,10a8,8,0,0,1,16,0V24A8,8,0,0,1,8,24Z"/></g></g></g></g></svg>
